!!!!SEGMENT: pl-kk--kk-i-10--016-001_anonim--missa-supra-resonet-kyrie.krn
!!!cenid: 16xx:1208
!!!COM: Anonim
!!!COM-rismID:
!!!CDT:
!!!CNT:
!!!OPR: Missa supra Resonet
!!!OTL: Kyrie
!!!OMV: 001
!!!PDT:
!!!AGN: Sacred; Mass
!!!SMS-siglum: PL-Kk
!!!SMS-shelfmark: Kk.I.10
!!!SMS-shelfwork: 016-001 M
!!!SMS-variant:
!!!SMS-altvar:
!!!NIFC-rismSourceID: 1001153963
!!!NIFC-islandoraID: pl-kk:2434
!!!URL-pdf-islandora: https://repozytorium.nifc.pl/islandora/object/pl-kk%3A2434/datastream/PDF/view
!!!URL-scan: https://polish.musicsources.pl/pl/lokalizacje/galeria/rekopisy/5737 @EN{Scan on Polish Music Herritage in Open Access Website} @PL{Skany w portalu Dziedzictwo Muzyki Polskiej w otwartym dostępie}
!!!ONB-nifc: UWAGA: Części Mszy: 1. Kyrie, 2. Et in terra. A (skan 0027-0028), T (0076-0077), B (0126-0127).
!!!AIN: 1 alto 1 empty 1 tenor
!!!key:
**kern	**text	**kern	**text	**kern	**text
*part3	*part3	*part2	*part2	*part1	*part1
*staff3	*staff3	*staff2	*staff2	*staff1	*staff1
*Iempty	*	*Itenor	*	*Ialto	*
*I"Baſso	*	*I"[Tenor]	*	*I"[Altus.]	*
*I'B	*	*I'T	*	*I'A	*
*clefF4	*	*clefC4	*	*clefC3	*
*k[]	*	*k[]	*	*k[]	*
*G:	*	*G:	*	*G:	*
*M3/2	*	*M3/2	*	*M3/2	*
*all\right	*	*all\right	*	*all\right	*
=1-	=1-	=1-	=1-	=1-	=1-
1G	Ky-	1d	Ky-	1g	Ky-
*2\right	*	*2\right	*	*2\right	*
!LO:TX:t=P:problem=kreska pseudotaktowa	!	!LO:TX:t=P:problem=kreska pseudotaktowa	!	!LO:TX:t=P:problem=kreska pseudotaktowa	!
2G\	-ri-	2d\	-ri-	2g\	-ri-
=2-	=2-	=2-	=2-	=2-	=2-
1G	-e	1B	-e	1g	-e
2G\	e-	2G/	e-	2g\	e-
=3-	=3-	=3-	=3-	=3-	=3-
!	!	!	!	!LO:TX:t=P:problem=kreska pseudotaktowa	!
1G	.	1B	-ley-	1.g	-ley-
!LO:TX:t=P:problem=kreska pseudotaktowa	!	!LO:TX:t=P:problem=kreska pseudotaktowa	!	!	!
2C/	-ley-	2c\	.	.	.
=4-	=4-	=4-	=4-	=4-	=4-
!LO:TX:t=P:problem=kreska pseudotaktowa	!	!LO:TX:t=P:problem=kreska pseudotaktowa	!	!LO:TX:t=P:problem=kreska pseudotaktowa	!
1.G	-ſon	1.B	-ſon	1.g	-ſon
=5-	=5-	=5-	=5-	=5-	=5-
*	*ij	*	*	*	*ij
1G	Ky-	1B	Ky-	1g	Ky-
!LO:TX:t=P:problem=kreska pseudotaktowa	!	!	!	!LO:TX:t=P:problem=kreska pseudotaktowa	!
2A\	-ri-	2c\	-ri-	2e\	-ri-
=6-	=6-	=6-	=6-	=6-	=6-
1G	-e	1d	-e	1g	-e
!LO:TX:t=P:problem=kreska pseudotaktowa	!	!LO:TX:t=P:problem=kreska pseudotaktowa	!	!	!
2GG/	e-	2d\	e-	2g\	e-
=7-	=7-	=7-	=7-	=7-	=7-
1C	-ley-	1e	-ley-	1f#X	-ley-
!LO:TX:t=P:problem=kreska pseudotaktowa	!	!	!	!LO:TX:t=P:problem=kreska pseudotaktowa	!
2D/	-ſon	2d\	.	2f#\	.
*	*Xij	*	*	*	*
=8-	=8-	=8-	=8-	=8-	=8-
!	!	!LO:TX:t=P:problem=kreska pseudotaktowa	!	!	!
1GG	Ky-	1.d	-ſon	1g	.
!	!	!	!	!LO:TX:t=P:problem=kreska pseudotaktowa	!
2G\	-ri-	.	.	2g\	-ſon
*	*	*	*	*	*Xij
=9-	=9-	=9-	=9-	=9-	=9-
1F#X	-e	1d	Ky-	1a	Ky-
!LO:TX:t=P:problem=kreska pseudotaktowa	!	!LO:TX:t=P:problem=kreska pseudotaktowa	!	!	!
2G\	e-	2d\	-ri-	2g\	-ri-
=10-	=10-	=10-	=10-	=10-	=10-
!	!	!	!	!LO:TX:t=P:problem=kreska pseudotaktowa	!
1G	-ley-	1B	-e	1.g	-e
!	!	!LO:LB:g=original	!	!	!
!	!	!LO:TX:t=P::problem=kreska pseudotaktowa&colon;między nutą i kropką	!	!	!
2G\	-ſon	2.G/	e-	.	.
=11-	=11-	=11-	=11-	=11-	=11-
!LO:LB:g=original	!	!	!	!LO:LB:g=original	!
2.GG/	Ky-	.	.	2g\	e-
.	.	4A/	.	.	.
.	.	4B\	.	2.d\	.
4AA/	-ri-	4c\	.	.	.
!	!	!LO:TX:t=P:problem=kreska pseudotaktowa	!	!	!
4BB/	-e	2d\	.	.	.
!LO:TX:t=P:problem=kreska pseudotaktowa	!	!	!	!LO:TX:t=P:problem=kreska pseudotaktowa	!
4C/	.	.	.	4e\	.
=12-	=12-	=12-	=12-	=12-	=12-
1D	e-	1d	-ley-	4f#X\	.
.	.	.	.	4e\	.
.	.	.	.	4f#\	.
.	.	.	.	4g\	.
!LO:TX:t=P:problem=kreska pseudotaktowa	!	!LO:TX:t=P:problem=kreska pseudotaktowa	!	!LO:TX:t=P:problem=kreska pseudotaktowa	!
2AA/	.	2e\	-ſon	2a\	.
=13-	=13-	=13-	=13-	=13-	=13-
2BB/	-ley-	2d\	e-	1g	.
2C/	.	2e\	-ley-	.	.
2D/	.	2d\	-ſon	2f#X\	-ley-
=14-	=14-	=14-	=14-	=14-	=14-
!LO:TX:t=P:problem=kreska pseudotaktowa	!	!LO:TX:t=P:problem=kreska pseudotaktowa	!	!LO:TX:t=P:problem=kreska pseudotaktowa	!
1.GG	-ſon	1.d	.	1.g	-ſon
=15-	=15-	=15-	=15-	=15-	=15-
1G	Ky-	1B	Ky-	1g	Ky-
2G\	-ri-	2B\	-ri-	2d\	-ri-
=16-	=16-	=16-	=16-	=16-	=16-
1G	-e	1d	-e	1d	-e
!LO:TX:t=P:problem=kreska pseudotaktowa	!	!LO:TX:t=P:problem=kreska pseudotaktowa	!	!LO:TX:t=P:problem=kreska pseudotaktowa	!
2G\	e-	2d\	e-	2g\	e-
=17-	=17-	=17-	=17-	=17-	=17-
2.GG/	.	1d	-ley-	2g\	.
.	.	.	.	2.d\	.
4AA/	.	.	.	.	.
!	!	!LO:TX:t=P:problem=kreska pseudotaktowa	!	!	!
4BB/	.	2G/	-ſon	.	.
!	!	!	!	!LO:TX:t=P:problem=kreska pseudotaktowa	!
4C/	.	.	.	4e\	.
=18-	=18-	=18-	=18-	=18-	=18-
1D	-ley-	2r	.	4f#X\	.
.	.	.	.	4e\	.
.	.	2A/	Ky-	4f#\	.
.	.	.	.	4g\	.
!LO:TX:t=P:problem=kreska pseudotaktowa	!	!LO:TX:t=P:problem=kreska pseudotaktowa	!	!LO:TX:t=P:problem=kreska pseudotaktowa	!
2AA/	-ſon	2A/	-ri-	2a\	.
=19-	=19-	=19-	=19-	=19-	=19-
2BB/	e-	2d\	-e	1g	-ley-
2C/	.	2c\	e-	.	.
!	!	!LO:TX:t=P:problem=kreska pseudotaktowa	!	!	!
2D/	-ley-	2A/	-ley-	2f#X\	.
=20-	=20-	=20-	=20-	=20-	=20-
*M2/1	*	*M2/1	*	*M2/1	*
*met(C)	*	*met(C)	*	*met(C)	*
!	!	!LO:LB:g=original	!	!LO:TX:t=P:problem=kreska pseudotaktowa	!
2GG/	-ſon	2B\	-ſon	1g	-ſon
!LO:TX:t=P:problem=kreska pseudotaktowa	!	!	!	!	!
2r	.	8r	.	.	.
.	.	8d\	Chri-	.	.
.	.	8B\	-ſte	.	.
!	!	!LO:TX:t=P:problem=kreska pseudotaktowa	!	!	!
.	.	8d\	e-	.	.
1r	.	4c\	-ley-	0r	.
.	.	8A\	.	.	.
.	.	8c\	-ſon	.	.
.	.	8B\L	e-	.	.
.	.	8A\J	.	.	.
!	!	!LO:TX:t=P:problem=kreska pseudotaktowa	!	!	!
.	.	4G/	.	.	.
=21-	=21-	=21-	=21-	=21-	=21-
!LO:LB:g=original	!	!	!	!	!
2r	.	2A/	-ley-	.	.
8r	.	4G/	-ſon	.	.
8G\	Chri-	.	.	.	.
*	*	*	*ij	*	*
!	!	!LO:TX:t=P:problem=kreska pseudotaktowa	!	!	!
8E\	-ſte	4B\	Chri-	.	.
!LO:TX:t=P:problem=kreska pseudotaktowa	!	!	!	!	!
8G\	e-	.	.	.	.
!	!	!	!	!LO:LB:g=original	!
4Fny\	-ley-	4c\	-ſte	2r	.
8D\	.	4d\	e-	.	.
8F\	-ſon	.	.	.	.
!	!	!LO:TX:t=P:problem=kreska pseudotaktowa	!	!	!
8E\L	e-	2e\	-ley-	8r	.
8D\J	.	.	.	8g\	Chri-
!LO:TX:t=P:problem=kreska pseudotaktowa	!	!	!	!	!
4C/	.	.	.	8e\	-ſte
!	!	!	!	!LO:TX:t=P:problem=kreska pseudotaktowa	!
.	.	.	.	8g\	e-
=22-	=22-	=22-	=22-	=22-	=22-
8D\L	.	2d\	-ſon	4fny\	-ley-
*	*	*	*Xij	*	*
8E\	.	.	.	.	.
8F\	.	.	.	8d\	.
8G\J	.	.	.	8f\	-ſon
!LO:TX:t=P:problem=kreska pseudotaktowa	!	!LO:TX:t=P:problem=kreska pseudotaktowa	!	!	!
2A\	-ley-	2r	.	8.e\L	e-
.	.	.	.	16d\Jk	.
!	!	!	!	!LO:TX:t=P:problem=kreska pseudotaktowa	!
.	.	.	.	4c\	-ley-
2G\	-ſon	8r	.	2d\	-ſon
.	.	8d\	Chri-	.	.
.	.	8B\	-ſte	.	.
.	.	8d\	e-	.	.
*	*	*	*	*	*ij
!LO:TX:t=P:problem=kreska pseudotaktowa	!	!	!	!	!
2r	.	4c\	-ley-	4A/	Chri-
!	!	!	!	!LO:TX:t=P:problem=kreska pseudotaktowa	!
.	.	8A\	.	4e\	.
!	!	!LO:TX:t=P:problem=kreska pseudotaktowa	!	!	!
.	.	8c\	-ſon	.	.
=23-	=23-	=23-	=23-	=23-	=23-
0r	.	8B\L	e-	2g\	-ſte
.	.	8A\J	.	.	.
.	.	4G/	.	.	.
!	!	!LO:LB:g=original	!	!	!
.	.	4A\	.	4e\	.
!	!	!LO:TX:t=P:problem=kreska pseudotaktowa	!	!LO:TX:t=P:problem=kreska pseudotaktowa	!
.	.	4B\	.	4d\	e-
.	.	8c\L	.	4e\	.
.	.	16B\L	.	.	.
.	.	16c\JJ	.	.	.
.	.	4d\	.	2d\	-ley-
!	!	!LO:TX:t=P:problem=kreska pseudotaktowa	!	!	!
.	.	2A/	-ley-	.	.
!	!	!	!	!LO:TX:t=P:problem=kreska pseudotaktowa	!
.	.	.	.	4c#X/	.
=24-	=24-	=24-	=24-	=24-	=24-
8r	.	2D,</	-ſon	8d\	-ſon
*	*	*	*	*	*Xij
8D/	Chri-	.	.	8f\	Chri-
8BB/	-ſte	.	.	8d\	-ſte
8D/	e-	.	.	8f\	e-
4C/	-ley-	4G/	e-	4e\	-ley-
!	!	!LO:TX:t=P:problem=kreska pseudotaktowa	!	!	!
8AA/	.	4A/	-ley-	8cny\	-ſon
!LO:TX:t=P:problem=kreska pseudotaktowa	!	!	!	!LO:TX:t=P:problem=kreska pseudotaktowa	!
8C/	-ſon	.	.	8e\	.
8BB/L	e-	8D/	-ſon	4d\	e-
8AA/J	.	8d\	Chri-	.	.
4GG/	.	8B\	-ſte	2g\	-ley-
.	.	8d\	e-	.	.
!LO:TX:t=P:problem=kreska pseudotaktowa	!	!	!	!	!
2AA/	-ley-	4c\	-ley-	.	.
!	!	!	!	!LO:TX:a:t=P:problem=# above	!
!	!	!	!	!LO:TX:t=P:problem=kreska pseudotaktowa	!
.	.	8A\	.	4f#X\	.
!	!	!LO:TX:t=P:problem=kreska pseudotaktowa	!	!	!
.	.	8c\	-ſon	.	.
=25-	=25-	=25-	=25-	=25-	=25-
!	!	!	!	!LO:LB:g=original	!
2GG/	-ſon	8B\L	e-	2g\	-ſon
.	.	8A\J	.	.	.
.	.	4G/	.	.	.
!LO:LB:g=original	!	!	!	!	!
!LO:TX:t=P:problem=kreska pseudotaktowa	!	!LO:TX:t=P:problem=kreska pseudotaktowa	!	!	!
2AA/	e-	2c\	-ley-	8r	.
.	.	.	.	8e\	Chri-
.	.	.	.	8c\	-ſte
!	!	!	!	!LO:TX:t=P:problem=kreska pseudotaktowa	!
.	.	.	.	8e\	e-
2BB/	-ley-	2G/	-ſon	4d\	-ley-
.	.	.	.	8B\	.
.	.	.	.	8d\	-ſon
*	*	*	*	*	*ij
!LO:TX:t=P:problem=kreska pseudotaktowa	!	!	!	!	!
2C/	.	8r	.	4c/	Chri-
.	.	8e\	Chri-	.	.
.	.	8c\	-ſte	8A/	-ſte
*	*	*	*	*	*Xij
!	!	!LO:TX:t=P:problem=kreska pseudotaktowa	!	!LO:TX:t=P:problem=kreska pseudotaktowa	!
.	.	8e\	e-	8c/	e-
=26-	=26-	=26-	=26-	=26-	=26-
8GG,/	-ſon	4d\	-ley-	8.B/L	-ley-
8G\	Chri-	.	.	.	.
.	.	.	.	16A/Jk	.
8E\	-ſte	8G/	-ſte	4G/	.
8G\	e-	8G/	e-	.	.
!	!	!LO:LB:g=original	!	!LO:TX:t=P:problem=kreska pseudotaktowa	!
4F\	-ley-	4c\	.	2A/	.
!	!	!LO:TX:t=P:problem=kreska pseudotaktowa	!	!	!
8D\	.	4d\	.	.	.
!LO:TX:t=P:problem=kreska pseudotaktowa	!	!	!	!	!
8F\	-ſon	.	.	.	.
8E\L	e-	2e\	-ley-	8G/	-ſon
8D\J	.	.	.	8g\	Chri-
4C/	.	.	.	8e\	-ſte
.	.	.	.	8g\	e-
!	!	!LO:TX:t=P:problem=kreska pseudotaktowa	!	!	!
4D/	.	2d\	-ſon	4fny\	-ley-
!LO:TX:t=P:problem=kreska pseudotaktowa	!	!	!	!	!
4GG/	-ley-	.	.	8d\	.
!	!	!	!	!LO:TX:t=P:problem=kreska pseudotaktowa	!
.	.	.	.	8f\	-ſon
=27-	=27-	=27-	=27-	=27-	=27-
!	!	!LO:TX:t=P:problem=kreska pseudotaktowa	!	!	!
2AA/	-ſon	1r	.	8.e\L	.
.	.	.	.	16d\Jk	e-
.	.	.	.	16c\LL	-ley-
.	.	.	.	16d\	.
.	.	.	.	16e\	.
.	.	.	.	16f\JJ	.
!	!	!	!	!LO:LB:g=original	!
4E\	.	.	.	8g,\	-ſon
.	.	.	.	8g\	Chri-
!LO:TX:t=P:problem=kreska pseudotaktowa	!	!	!	!	!
4E\	e-	.	.	8e\	-ſte
!	!	!	!	!LO:TX:t=P:problem=kreska pseudotaktowa	!
.	.	.	.	8g\	e-
2F\	-ley-	8r	.	4f\	-ley-
.	.	8A/	Chri-	.	.
.	.	8F/	-ſte	8d\	-ſon
.	.	8A/	e-	8f\	e-
!LO:TX:t=P:problem=kreska pseudotaktowa	!	!	!	!	!
2C/	-ſon	4G/	-ley-	8.e\L	.
.	.	.	.	16d\Jk	.
!	!	!	!	!LO:TX:t=P:problem=kreska pseudotaktowa	!
.	.	8E/	-ſon	4c/	.
!	!	!LO:TX:t=P:problem=kreska pseudotaktowa	!	!	!
.	.	8G/	e-	.	.
=28-	=28-	=28-	=28-	=28-	=28-
8r	.	8F/L	.	2d\	-ley-
8D/	Chri-	8E/J	.	.	.
8BB/	-ſte	4D/	.	.	.
8D/	e-	.	.	.	.
!	!	!LO:TX:t=P:problem=kreska pseudotaktowa	!	!LO:TX:t=P:problem=kreska pseudotaktowa	!
4C/	-ley-	2E/	-ley-	2c/	-ſon
8AA/	-ſon	.	.	.	.
!LO:TX:t=P:problem=kreska pseudotaktowa	!	!	!	!	!
8C/	e-	.	.	.	.
!LO:LB:g=original	!	!	!	!	!
8BB/L	.	2G/	.	4d\	.
8AA/J	.	.	.	.	.
*	*	*	*	*	*ij
4GG/	.	.	.	2g\	Chri-
!LO:TX:t=P:problem=kreska pseudotaktowa	!	!	!	!	!
2AA/	-ley-	4C/	-ſon	.	.
*	*	*	*ij	*	*
!	!	!LO:TX:t=P:problem=kreska pseudotaktowa	!	!LO:TX:t=P:problem=kreska pseudotaktowa	!
.	.	4c\	Chri-	4f#X\	-ſte
=29-	=29-	=29-	=29-	=29-	=29-
4GG,</	-ſon	4.d\	-ſte	4g\	e-
4BB/	e-	.	.	4d\	-ley-
.	.	8D/	e-	.	.
!	!	!LO:TX:t=P:problem=kreska pseudotaktowa	!	!	!
4C/	-ley-	2A/	-ley-	4e\	.
!LO:TX:t=P:problem=kreska pseudotaktowa	!	!	!	!	!
4D/	.	.	.	4d\	.
!	!	!LO:TX:t=P:problem=kreska pseudotaktowa	!	!LO:TX:t=P:problem=kreska pseudotaktowa	!
1GG	-ſon	1G	-ſon	1d	-ſon
*	*	*	*Xij	*	*Xij
=30||-	=30||-	=30||-	=30||-	=30||-	=30||-
*M3/2	*	*M3/2	*	*M3/2	*
!	!	!LO:LB:g=original	!	!	!
1G	Ky-	1d	Ky-	1g	Ky-
!LO:TX:t=P:problem=kreska pseudotaktowa	!	!LO:TX:t=P:problem=kreska pseudotaktowa	!	!LO:TX:t=P:problem=kreska pseudotaktowa	!
2G\	-ri-	2d\	-ri-	2g\	-ri-
=31-	=31-	=31-	=31-	=31-	=31-
1G	-e	1B	-e	1g	-e
!LO:TX:t=P:problem=kreska pseudotaktowa	!	!LO:TX:t=P:problem=kreska pseudotaktowa	!	!	!
2G\	e-	2G/	e-	2g\	e-
=32-	=32-	=32-	=32-	=32-	=32-
1G	-ley-	1B	-ley-	1.g	-ley-
2C/	.	2c\	-ſon	.	.
=33-	=33-	=33-	=33-	=33-	=33-
*	*	*	*ij	*	*
!	!	!	!	!LO:TX:t=P:problem=kreska pseudotaktowa	!
!LO:TX:t=P:problem=kreska pseudotaktowa	!	!LO:TX:t=P:problem=kreska pseudotaktowa	!	!LO:TX:a:t=P:problem=kropka za kreską. custos?	!
1.G	-ſon	1.B	Ky-	1.g	-ſon
=34-	=34-	=34-	=34-	=34-	=34-
*	*ij	*	*	*	*ij
!	!	!	!	!LO:LB:g=original	!
1G	Ky-	1B	-ri-	1g	Ky-
!LO:TX:t=P:problem=kreska pseudotaktowa	!	!	!	!	!
2A\	-ri-	2c\	-e	2e\	-ri-
=35-	=35-	=35-	=35-	=35-	=35-
1G	-e	1d	e-	1g	-e
!LO:TX:t=P:problem=kreska pseudotaktowa	!	!LO:TX:t=P:problem=kreska pseudotaktowa	!	!LO:TX:t=P:problem=kreska pseudotaktowa	!
2GG/	e-	2d\	.	2g\	e-
=36-	=36-	=36-	=36-	=36-	=36-
1C	-ley-	1e	-ley-	1g	-ley-
2D/	.	2d\	.	2f#X\	.
=37-	=37-	=37-	=37-	=37-	=37-
!LO:LB:g=original	!	!LO:TX:t=P:problem=kreska pseudotaktowa	!	!	!
1GG	-ſon	1.d	-ſon	1g	-ſon
*	*Xij	*	*Xij	*	*Xij
!LO:TX:t=P:problem=kreska pseudotaktowa	!	!	!	!LO:TX:t=P:problem=kreska pseudotaktowa	!
2G\	Ky-	.	.	2g\	Ky-
=38-	=38-	=38-	=38-	=38-	=38-
1F#X	-ri-	1d	Ky-	1a	-ri-
!LO:TX:t=P:problem=kreska pseudotaktowa	!	!	!	!	!
2G\	-e	2d\	-ri-	2g\	-e
=39-	=39-	=39-	=39-	=39-	=39-
!	!	!	!	!LO:TX:t=P:problem=kreska pseudotaktowa	!
1G	e-	1B	-e	1.g	e-
2G\	.	2.G/	.	.	.
=40-	=40-	=40-	=40-	=40-	=40-
2.GG/	.	.	.	2g\	.
.	.	4A/	.	.	.
.	.	4B\	.	2.d\	.
4AA/	.	4c\	.	.	.
!	!	!LO:TX:t=P:problem=kreska pseudotaktowa	!	!	!
4BB/	.	2d\	.	.	.
!LO:TX:t=P:problem=kreska pseudotaktowa	!	!	!	!	!
4C/	.	.	.	4e\	.
=41-	=41-	=41-	=41-	=41-	=41-
2.D/	-ley-	1d	.	4f#X\	.
.	.	.	.	4e\	.
.	.	.	.	4f#\	.
8C/L	-ſon	.	.	4g\	.
8BB/J	.	.	.	.	.
!LO:TX:t=P:problem=kreska pseudotaktowa	!	!LO:TX:t=P:problem=kreska pseudotaktowa	!	!LO:TX:t=P:problem=kreska pseudotaktowa	!
2AA/	e-	2e\	.	2a\	.
=42-	=42-	=42-	=42-	=42-	=42-
!	!	!LO:LB:g=original	!	!	!
2BB/	-ley-	2d\	.	1g	-ley-
2C/	.	2e\	.	.	.
!LO:TX:t=P:problem=kreska pseudotaktowa	!	!	!	!LO:TX:a:t=P:problem=# above	!
2D/	.	2d\	.	2f#X\	.
=43-	=43-	=43-	=43-	=43-	=43-
!LO:TX:t=P:problem=kreska pseudotaktowa	!	!LO:TX:t=P:problem=kreska pseudotaktowa	!	!LO:TX:t=P:problem=kreska pseudotaktowa	!
1.GG	-ſon	1.d	.	1.g	-ſon
=44-	=44-	=44-	=44-	=44-	=44-
1G	Ky-	1B	.	1g	Ky-
!LO:TX:t=P:problem=kreska pseudotaktowa	!	!	!	!	!
2G\	-ri-	2B\	.	2d\	-ri-
=45-	=45-	=45-	=45-	=45-	=45-
!	!	!	!	!LO:LB:g=original	!
1G	-e	1d	.	1g	-e
!LO:TX:t=P:problem=kreska pseudotaktowa	!	!LO:TX:t=P:problem=kreska pseudotaktowa	!	!LO:TX:t=P:problem=kreska pseudotaktowa	!
2G\	.	2d\	.	2g\	e-
=46-	=46-	=46-	=46-	=46-	=46-
!LO:LB:g=original	!	!	!	!	!
2.GG/	e-	1d	.	2g\	.
.	.	.	.	2.d\	.
4AA/	.	.	.	.	.
!	!	!LO:TX:t=P:problem=kreska pseudotaktowa	!	!	!
4BB/	.	2G/	.	.	.
!LO:TX:t=P:problem=kreska pseudotaktowa	!	!	!	!LO:TX:t=P:problem=kreska pseudotaktowa	!
4C/	.	.	.	4e\	.
=47-	=47-	=47-	=47-	=47-	=47-
2.D/	-ley-	2r	.	4f#X\	.
.	.	.	.	4e\	.
.	.	2A/	.	4f#X\	.
8C/L	.	.	.	4g\	.
8BB/J	.	.	.	.	.
!LO:TX:t=P:problem=kreska pseudotaktowa	!	!LO:TX:t=P:problem=kreska pseudotaktowa	!	!LO:TX:t=P:problem=kreska pseudotaktowa	!
2AA/	-ſon	2A/	.	2a\	.
=48-	=48-	=48-	=48-	=48-	=48-
2BB/	e-	2d\	.	1g	-ley-
2C/	-ley-	2c\	.	.	.
2D/	.	2A/	.	2f#X\	.
=49-	=49-	=49-	=49-	=49-	=49-
*M2/1	*	*M2/1	*	*M2/1	*
*met(C)	*	*met(C)	*	*met(C)	*
2GG/	-ſon	2B\	.	2g\	-ſon
1C/	e	4c\	.	1e\	Ky-
!	!	!LO:TX:t=P:problem=kreska pseudotaktowa	!	!	!
.	.	4d\	.	.	.
.	.	2e\	.	.	-ri-
!	!	!	!	!LO:TX:t=P:problem=kreska pseudotaktowa	!
2BB/	ley-	2d\	.	2g\	-e-
=50-	=50-	=50-	=50-	=50-	=50-
!LO:TX:t=P:problem=kreska pseudotaktowa	!	!	!	!	!
1C	.	1c	.	2.e\	-e-
.	.	.	.	8d\L	-ley-
.	.	.	.	8c\J	.
!LO:N:vis=0	!	!LO:N:vis=0	!	!LO:N:vis=0	!
1GG	-ſon	1B	.	1d	-ſon
=-	=-	=-	=-	=-	=-
*-	*-	*-	*-	*-	*-
!!!system-decoration: [(s1,s2,s3)]
!!!RDF**kern: < = below
!!!RDF**kern: > = above
!!!ENC: Marta Chmielewska
!!!END: 2021-07-08
!!!ENC: Andrzej Gręziak
!!!END: 2021-06-28
